icon-svg/imac.svg

<svg xmlns="http://www.w3.org/2000/svg" fill="#44739e" viewBox="0 0 24 24"><path d="M13.112 7.508a1.506 1.506 0 0 0 .39-1c0-.048 0-.1-.006-.144a1.505 1.505 0 0 0-.576.162 1.63 1.63 0 0 0-.92 1.39 1 1 0 0 0 .009.135 1.327 1.327 0 0 0 1.103-.543m-3.335 5.078a3.65 3.65 0 0 0 .517.619.9.9 0 0 0 .648.288 1.78 1.78 0 0 0 .561-.147 1.74 1.74 0 0 1 .648-.138 1.69 1.69 0 0 1 .631.138 1.55 1.55 0 0 0 .585.141.967.967 0 0 0 .633-.279 3.54 3.54 0 0 0 .493-.6 3.9 3.9 0 0 0 .384-.691c.045-.105.087-.213.123-.327a1.7 1.7 0 0 1-.492-.324 1.556 1.556 0 0 1 .3-2.5 1.722 1.722 0 0 0-1.351-.712 2 2 0 0 0-.81.144 3.3 3.3 0 0 1-.6.186 2.2 2.2 0 0 1-.537-.159 2.06 2.06 0 0 0-.678-.159 1.75 1.75 0 0 0-.877.249 1.85 1.85 0 0 0-.648.658A2.35 2.35 0 0 0 9 10.212a3.95 3.95 0 0 0 .231 1.288 4.3 4.3 0 0 0 .546 1.086m11.712-8.505H2.51a.51.51 0 0 0-.51.511V17.46a.511.511 0 0 0 .51.511h7.781l-.113 1.69a.824.824 0 0 1-.262.554l-.791.7a.16.16 0 0 0 .105.281h5.54a.16.16 0 0 0 .1-.282l-.8-.7a.813.813 0 0 1-.269-.567l-.1-1.68h7.783A.512.512 0 0 0 22 17.46V4.592a.511.511 0 0 0-.511-.511M12 4.214a.1862.1862 0 0 1 .019.372.07.07 0 0 1-.019 0 .06.06 0 0 1-.019 0A.1862.1862 0 0 1 12 4.214m9.36 10.925H2.64V4.721h18.72z"/></svg>

<?xml version="1.0" encoding="UTF-8"?>
<svg width="24px" fill="#44739e" height="24px" viewBox="0 0 24 24" version="1.1" xmlns="http://www.w3.org/2000/svg" xmlns:xlink="http://www.w3.org/1999/xlink">
            <path d="m 13.112,7.508 a 1.506,1.506 0 0 0 0.39,-1 c 0,-0.048 0,-0.1 -0.006,-0.144 A 1.505,1.505 0 0 0 12.92,6.526 1.63,1.63 0 0 0 12,7.916 1.02,1.02 0 0 0 12.009,8.051 1.327,1.327 0 0 0 13.112,7.508 Z m -3.335,5.078 a 3.646,3.646 0 0 0 0.517,0.619 0.9,0.9 0 0 0 0.648,0.288 1.783,1.783 0 0 0 0.561,-0.147 1.743,1.743 0 0 1 0.648,-0.138 1.687,1.687 0 0 1 0.631,0.138 1.547,1.547 0 0 0 0.585,0.141 0.967,0.967 0 0 0 0.633,-0.279 3.536,3.536 0 0 0 0.493,-0.6 3.888,3.888 0 0 0 0.384,-0.691 C 14.922,11.812 14.964,11.704 15,11.59 a 1.7,1.7 0 0 1 -0.492,-0.324 1.556,1.556 0 0 1 0.3,-2.5 1.722,1.722 0 0 0 -1.351,-0.712 2,2 0 0 0 -0.81,0.144 3.291,3.291 0 0 1 -0.6,0.186 A 2.194,2.194 0 0 1 11.51,8.225 2.059,2.059 0 0 0 10.832,8.066 1.75,1.75 0 0 0 9.955,8.315 1.849,1.849 0 0 0 9.307,8.973 2.352,2.352 0 0 0 9,10.212 3.95,3.95 0 0 0 9.231,11.5 4.3,4.3 0 0 0 9.777,12.586 Z M 21.489,4.081 H 2.51 A 0.51,0.51 0 0 0 2,4.592 V 17.46 a 0.511,0.511 0 0 0 0.51,0.511 h 7.781 l -0.113,1.69 a 0.824,0.824 0 0 1 -0.262,0.554 l -0.791,0.7 a 0.16,0.16 0 0 0 0.105,0.281 h 5.54 a 0.16,0.16 0 0 0 0.1,-0.282 l -0.8,-0.7 a 0.813,0.813 0 0 1 -0.269,-0.567 l -0.1,-1.68 h 7.783 A 0.512,0.512 0 0 0 22,17.46 V 4.592 A 0.511,0.511 0 0 0 21.489,4.081 Z M 12,4.214 a 0.18624245,0.18624245 0 0 1 0.019,0.372 0.065,0.065 0 0 1 -0.019,0 0.062,0.062 0 0 1 -0.019,0 A 0.18624245,0.18624245 0 0 1 12,4.214 Z m 9.36,10.925 H 2.64 V 4.721 h 18.72 z"/>

</svg>
